X:1
T:Judgment
T:Isaac Watts, 1719 Psalm 139, Part 3         88. 88. (L. M.) 
T:Transcribed from Kentucky Harmony, 1817.
T:E minor                  Robert Boyd, 1813 Arranged by Ananias Davisson, 1816 
%%score [ 1 2 3 4 ]
L:1/8
Q:1/4=130
M:4/4
K:G
V:1 treble nm="Tr." snm="Tr."
V:2 treble nm="C." snm="C."
V:3 treble-8 nm="T." snm="T."
V:4 bass nm="B." snm="B."
V:1
 E4 |: G2 G2 B4 | (d2 B2) e2 e2 | (e3 d B2) AG | E2 E2 E4 | G4 B2 B2 |1 B4 E4 :|2 B4 d4 || %8
 B2 A2 d4 | (B2 G2) A2 A2 | A4 B4 | d2 gf e4 | B4 B3 c | d4 G4 | B2 B2 B4 | (B2 d2) A2 A2 | %16
 A4 (G2 B2) | A2 B2 e4 | d4 B2 B2 | B8 |] %20
V:2
"^My  God, what inward grief I  feel         When impious men transgress thy will!\n I  mourn to hear their lips profane,         Take   thy  tremendous  name  in vain.\n""^1. {" E4 |: %1
 G2 G2 G4 | B4 B2 B2 | B6 D2 | E2 E2 E4 | G4 E2 E2 |1"^}" E4 E4 :|2 %7
 E4"^Does not my  soul      de    –     test   and\n" G4 || G2 G2 B4 | (G2 B2) E2 E2 | %10
"^hate  The  sons   of      malice   and   deceit?  Those  that oppose thy laws and  thee,  I    count them  e   –  ne  –  mies  to   me.\n" E4 (G2 E2) | %11
 D2 EF G4 | B4 G3 E | A4 G4 | E2 E2 G4 | (E2 G2) A2 A2 | A4 (B2 G2) | D2 GF E4 | D4 E2 F2 | E8 |] %20
V:3
"^Lord, search my soul, try every thought;  Though my own heart accuse me not\n Of   walking  in   a    false  dis  – guise,       I   beg  the  tri – al  of  thine eyes.\n""^2. {" B4 |: %1
 c2 d2 B4 | (G2 E2) B2 G2 | E6 A2 | B2 B2 A4 | G4 D2 E2 |1"^}" E4 E4 :|2 %7
 E4"^Doth  secret    mis  –   chief      lurk  with–\n" G4 || E2 E2 G4 | (B2 d2) e2 e2 | %10
"^–in?   Do      I   in – dulge some unknown sin?  O  turn my feet when – e'er  I  stray,  And   lead  me  in     thy      perfect   way.\n" e4 B4 | %11
 d2 ed B4 | G4 B3 A | A4 G4 | E2 E2 G4 | (B2 d2) e2 e2 | e4 B4 | d2 ed B4 | (A3 B) G2 F2 | E8 |] %20
V:4
 E,4 |: E,2 D,2 G,4 | G,4 E,2 B,,2 | E,6 D,2 | E,2 E,2 A,4 | B,4 B,,2 B,,2 |1 E,4 E,4 :|2 %7
 E,4 G,4 || B,2 A,2 G,4 | (E,2 D,2) E,2 E,2 | E,4 E,4 | G,2 G,2 G,4 | D,4 E,3 B,, | D,4 D,4 | %14
"^______________________________________________________________________________________________\nA folk hymn (Jackson 1952, no. 254).\nFirst published in \nPatterson's Church Music\n, 1813; rearranged (as above) by Ananias Davisson, 1816;\n   reprinted in Moore's \nColumbian Harmony\n, 1825; rearranged by William Hauser in \nThe Hesperian Harp\n, 1848.\n" E,2 E,2 E,4 | %15
 G,4 A,2 A,2 | A,4 G,4 | D,2 B,,2 E,4 | A,4 A,,2 B,,2 | E,8 |] %20

